public/waste/img/other.svg

<svg id="Layer_1" data-name="Layer 1" xmlns="http://www.w3.org/2000/svg" viewBox="0 0 124.63014 124.63014"><defs><style>.cls-1{fill:#68a;}</style></defs><path class="cls-1" d="M78.92683,44.02861,77.8486,37.60327l-10.82041.77088L51.2644,32.80591,36.21514,41.49412l22.3052,37.19225L48.96049,84.405l-13.83585-23.071-10.549,17.66029L31.528,94.21l13.174,1.28618,11.85856,15.0785H68.77286V80.44417l32.584-5.04783.09053-15.43537-15.45006-7.272L69.864,69.807l-7.92959-7.82979L78.92683,44.02861Zm-50.304,6.46533L20.84256,37.52075,50.49565,20.40147,68.84,27.05738l18.32736-1.3067,2.76381,16.466L112.6145,52.894l-.18107,33.46L79.72765,121.74983H51.15045L38.85477,106.116l-14.7885-1.44383L12.01564,78.298l16.6072-27.804ZM96.95005,87.29278,79.85041,90.05061l.09776,15.70839L96.95005,87.29278Z"/></svg>

<svg data-name="Layer 1" xmlns="http://www.w3.org/2000/svg" viewBox="0 0 124.63 124.63"><path d="M78.927 44.029l-1.078-6.426-10.82.771-15.765-5.568-15.049 8.688L58.52 78.686l-9.56 5.719-13.835-23.071-10.55 17.66 6.953 15.216 13.174 1.286 11.859 15.079h12.212v-30.13l32.584-5.049.09-15.435-15.45-7.272-16.133 17.118-7.93-7.83L78.927 44.03zm-50.304 6.465l-7.78-12.973L50.496 20.4l18.344 6.656 18.327-1.306 2.764 16.466 22.684 10.677-.182 33.46-32.705 35.396H51.15l-12.295-15.634-14.789-1.444-12.05-26.374 16.607-27.804zM96.95 87.293l-17.1 2.758.098 15.708L96.95 87.293z" fill="#68a"/></svg>
